images/320994.svg

<?xml version="1.0" encoding="UTF-8"?>
<svg xmlns="http://www.w3.org/2000/svg" xmlns:xlink="http://www.w3.org/1999/xlink" width="300pt" height="300pt" viewBox="0 0 300 300" version="1.1">
<defs>
<g>
<symbol overflow="visible" id="glyph0-0">
<path style="stroke:none;" d="M 0.546875 1.9375 L 0.546875 -7.75 L 6.046875 -7.75 L 6.046875 1.9375 Z M 1.171875 1.328125 L 5.4375 1.328125 L 5.4375 -7.140625 L 1.171875 -7.140625 Z M 1.171875 1.328125 "/>
</symbol>
<symbol overflow="visible" id="glyph0-1">
<path style="stroke:none;" d="M 1.078125 -8.015625 L 2.546875 -8.015625 L 6.09375 -1.3125 L 6.09375 -8.015625 L 7.15625 -8.015625 L 7.15625 0 L 5.6875 0 L 2.125 -6.703125 L 2.125 0 L 1.078125 0 Z M 1.078125 -8.015625 "/>
</symbol>
<symbol overflow="visible" id="glyph0-2">
<path style="stroke:none;" d="M 1.078125 -8.015625 L 2.171875 -8.015625 L 2.171875 -4.734375 L 6.109375 -4.734375 L 6.109375 -8.015625 L 7.1875 -8.015625 L 7.1875 0 L 6.109375 0 L 6.109375 -3.8125 L 2.171875 -3.8125 L 2.171875 0 L 1.078125 0 Z M 1.078125 -8.015625 "/>
</symbol>
<symbol overflow="visible" id="glyph0-3">
<path style="stroke:none;" d="M 4.328125 -7.28125 C 3.546875 -7.28125 2.921875 -6.984375 2.453125 -6.390625 C 1.992188 -5.804688 1.765625 -5.007812 1.765625 -4 C 1.765625 -2.988281 1.992188 -2.1875 2.453125 -1.59375 C 2.921875 -1.007812 3.546875 -0.71875 4.328125 -0.71875 C 5.117188 -0.71875 5.742188 -1.007812 6.203125 -1.59375 C 6.660156 -2.1875 6.890625 -2.988281 6.890625 -4 C 6.890625 -5.007812 6.660156 -5.804688 6.203125 -6.390625 C 5.742188 -6.984375 5.117188 -7.28125 4.328125 -7.28125 Z M 4.328125 -8.171875 C 5.453125 -8.171875 6.351562 -7.789062 7.03125 -7.03125 C 7.707031 -6.28125 8.046875 -5.269531 8.046875 -4 C 8.046875 -2.738281 7.707031 -1.726562 7.03125 -0.96875 C 6.351562 -0.21875 5.453125 0.15625 4.328125 0.15625 C 3.203125 0.15625 2.300781 -0.21875 1.625 -0.96875 C 0.957031 -1.71875 0.625 -2.726562 0.625 -4 C 0.625 -5.269531 0.957031 -6.28125 1.625 -7.03125 C 2.300781 -7.789062 3.203125 -8.171875 4.328125 -8.171875 Z M 4.328125 -8.171875 "/>
</symbol>
<symbol overflow="visible" id="glyph0-4">
<path style="stroke:none;" d="M 7.078125 -7.40625 L 7.078125 -6.25 C 6.710938 -6.59375 6.320312 -6.847656 5.90625 -7.015625 C 5.5 -7.179688 5.0625 -7.265625 4.59375 -7.265625 C 3.675781 -7.265625 2.972656 -6.984375 2.484375 -6.421875 C 2.003906 -5.867188 1.765625 -5.0625 1.765625 -4 C 1.765625 -2.945312 2.003906 -2.140625 2.484375 -1.578125 C 2.972656 -1.015625 3.675781 -0.734375 4.59375 -0.734375 C 5.0625 -0.734375 5.5 -0.816406 5.90625 -0.984375 C 6.320312 -1.148438 6.710938 -1.40625 7.078125 -1.75 L 7.078125 -0.625 C 6.703125 -0.363281 6.300781 -0.164062 5.875 -0.03125 C 5.457031 0.09375 5.007812 0.15625 4.53125 0.15625 C 3.320312 0.15625 2.367188 -0.210938 1.671875 -0.953125 C 0.972656 -1.703125 0.625 -2.71875 0.625 -4 C 0.625 -5.289062 0.972656 -6.304688 1.671875 -7.046875 C 2.367188 -7.796875 3.320312 -8.171875 4.53125 -8.171875 C 5.007812 -8.171875 5.460938 -8.101562 5.890625 -7.96875 C 6.316406 -7.84375 6.710938 -7.65625 7.078125 -7.40625 Z M 7.078125 -7.40625 "/>
</symbol>
<symbol overflow="visible" id="glyph0-5">
<path style="stroke:none;" d="M 1.03125 -8.359375 L 2.03125 -8.359375 L 2.03125 0 L 1.03125 0 Z M 1.03125 -8.359375 "/>
</symbol>
</g>
</defs>
<g id="surface37745">
<rect x="0" y="0" width="300" height="300" style="fill:rgb(100%,100%,100%);fill-opacity:1;stroke:none;"/>
<path style="fill:none;stroke-width:1.2;stroke-linecap:butt;stroke-linejoin:miter;stroke:rgb(0%,0%,0%);stroke-opacity:1;stroke-miterlimit:10;" d="M 98.199219 105.816406 L 71.382812 109.078125 "/>
<path style="fill:none;stroke-width:1.2;stroke-linecap:butt;stroke-linejoin:miter;stroke:rgb(0%,0%,0%);stroke-opacity:1;stroke-miterlimit:10;" d="M 96.285156 112.453125 L 74.832031 115.0625 "/>
<path style="fill:none;stroke-width:1.2;stroke-linecap:butt;stroke-linejoin:miter;stroke:rgb(0%,0%,0%);stroke-opacity:1;stroke-miterlimit:10;" d="M 114.433594 127.40625 L 98.199219 105.816406 "/>
<path style="fill:none;stroke-width:1.2;stroke-linecap:butt;stroke-linejoin:miter;stroke:rgb(0%,0%,0%);stroke-opacity:1;stroke-miterlimit:10;" d="M 71.382812 109.078125 L 60.800781 133.9375 "/>
<path style="fill:none;stroke-width:1.2;stroke-linecap:butt;stroke-linejoin:miter;stroke:rgb(0%,0%,0%);stroke-opacity:1;stroke-miterlimit:10;" d="M 60.800781 133.9375 L 77.035156 155.527344 "/>
<path style="fill:none;stroke-width:1.2;stroke-linecap:butt;stroke-linejoin:miter;stroke:rgb(0%,0%,0%);stroke-opacity:1;stroke-miterlimit:10;" d="M 57.34375 139.914062 L 70.332031 157.1875 "/>
<path style="fill:none;stroke-width:1.2;stroke-linecap:butt;stroke-linejoin:miter;stroke:rgb(0%,0%,0%);stroke-opacity:1;stroke-miterlimit:10;" d="M 35.25 142.703125 L 60.800781 133.9375 "/>
<path style="fill:none;stroke-width:1.2;stroke-linecap:butt;stroke-linejoin:miter;stroke:rgb(0%,0%,0%);stroke-opacity:1;stroke-miterlimit:10;" d="M 77.035156 155.527344 L 103.851562 152.261719 "/>
<path style="fill:none;stroke-width:1.2;stroke-linecap:butt;stroke-linejoin:miter;stroke:rgb(0%,0%,0%);stroke-opacity:1;stroke-miterlimit:10;" d="M 77.035156 155.527344 L 69.277344 166.582031 "/>
<path style="fill:none;stroke-width:1.2;stroke-linecap:butt;stroke-linejoin:miter;stroke:rgb(0%,0%,100%);stroke-opacity:1;stroke-miterlimit:10;" d="M 69.277344 166.582031 L 61.519531 177.640625 "/>
<path style="fill:none;stroke-width:1.2;stroke-linecap:butt;stroke-linejoin:miter;stroke:rgb(0%,0%,0%);stroke-opacity:1;stroke-miterlimit:10;" d="M 103.851562 152.261719 L 114.433594 127.40625 "/>
<path style="fill:none;stroke-width:1.2;stroke-linecap:butt;stroke-linejoin:miter;stroke:rgb(0%,0%,0%);stroke-opacity:1;stroke-miterlimit:10;" d="M 99.0625 147.289062 L 107.527344 127.402344 "/>
<path style="fill:none;stroke-width:1.2;stroke-linecap:butt;stroke-linejoin:miter;stroke:rgb(0%,0%,0%);stroke-opacity:1;stroke-miterlimit:10;" d="M 114.433594 127.40625 L 127.84375 125.773438 "/>
<path style="fill:none;stroke-width:1.2;stroke-linecap:butt;stroke-linejoin:miter;stroke:rgb(0%,0%,100%);stroke-opacity:1;stroke-miterlimit:10;" d="M 127.84375 125.773438 L 141.25 124.140625 "/>
<path style="fill:none;stroke-width:1.2;stroke-linecap:butt;stroke-linejoin:miter;stroke:rgb(0%,0%,100%);stroke-opacity:1;stroke-miterlimit:10;" d="M 141.25 124.140625 L 149.367188 134.9375 "/>
<path style="fill:none;stroke-width:1.2;stroke-linecap:butt;stroke-linejoin:miter;stroke:rgb(0%,0%,0%);stroke-opacity:1;stroke-miterlimit:10;" d="M 149.367188 134.9375 L 157.484375 145.734375 "/>
<path style=" stroke:none;fill-rule:nonzero;fill:rgb(100%,100%,100%);fill-opacity:1;" d="M 133.25 117.640625 L 150.25 117.640625 L 150.25 130.640625 L 133.25 130.640625 Z M 133.25 117.640625 "/>
<g style="fill:rgb(0%,0%,100%);fill-opacity:1;">
  <use xlink:href="#glyph0-1" x="133.25" y="127.541992"/>
  <use xlink:href="#glyph0-2" x="141.233398" y="127.541992"/>
</g>
<path style="fill:none;stroke-width:1.2;stroke-linecap:butt;stroke-linejoin:miter;stroke:rgb(0%,0%,0%);stroke-opacity:1;stroke-miterlimit:10;" d="M 154.5625 144.488281 L 149.269531 156.917969 "/>
<path style="fill:none;stroke-width:1.2;stroke-linecap:butt;stroke-linejoin:miter;stroke:rgb(100%,0%,0%);stroke-opacity:1;stroke-miterlimit:10;" d="M 149.269531 156.917969 L 143.980469 169.34375 "/>
<path style="fill:none;stroke-width:1.2;stroke-linecap:butt;stroke-linejoin:miter;stroke:rgb(0%,0%,0%);stroke-opacity:1;stroke-miterlimit:10;" d="M 160.410156 146.976562 L 155.117188 159.40625 "/>
<path style="fill:none;stroke-width:1.2;stroke-linecap:butt;stroke-linejoin:miter;stroke:rgb(100%,0%,0%);stroke-opacity:1;stroke-miterlimit:10;" d="M 155.117188 159.40625 L 149.828125 171.832031 "/>
<path style="fill:none;stroke-width:1.2;stroke-linecap:butt;stroke-linejoin:miter;stroke:rgb(0%,0%,0%);stroke-opacity:1;stroke-miterlimit:10;" d="M 157.484375 145.734375 L 184.300781 142.46875 "/>
<path style=" stroke:none;fill-rule:nonzero;fill:rgb(100%,100%,100%);fill-opacity:1;" d="M 137.902344 164.089844 L 146.902344 164.089844 L 146.902344 177.089844 L 137.902344 177.089844 Z M 137.902344 164.089844 "/>
<g style="fill:rgb(100%,0%,0%);fill-opacity:1;">
  <use xlink:href="#glyph0-3" x="137.902344" y="173.991211"/>
</g>
<path style="fill:none;stroke-width:1.2;stroke-linecap:butt;stroke-linejoin:miter;stroke:rgb(0%,0%,0%);stroke-opacity:1;stroke-miterlimit:10;" d="M 184.300781 142.46875 L 200.535156 164.058594 "/>
<path style="fill:none;stroke-width:1.2;stroke-linecap:butt;stroke-linejoin:miter;stroke:rgb(0%,0%,0%);stroke-opacity:1;stroke-miterlimit:10;" d="M 191.003906 140.808594 L 203.992188 158.082031 "/>
<path style="fill:none;stroke-width:1.2;stroke-linecap:butt;stroke-linejoin:miter;stroke:rgb(0%,0%,0%);stroke-opacity:1;stroke-miterlimit:10;" d="M 194.882812 117.613281 L 184.300781 142.46875 "/>
<path style="fill:none;stroke-width:1.2;stroke-linecap:butt;stroke-linejoin:miter;stroke:rgb(0%,0%,0%);stroke-opacity:1;stroke-miterlimit:10;" d="M 200.535156 164.058594 L 227.351562 160.796875 "/>
<path style="fill:none;stroke-width:1.2;stroke-linecap:butt;stroke-linejoin:miter;stroke:rgb(0%,0%,0%);stroke-opacity:1;stroke-miterlimit:10;" d="M 200.535156 164.058594 L 189.957031 188.914062 "/>
<path style="fill:none;stroke-width:1.2;stroke-linecap:butt;stroke-linejoin:miter;stroke:rgb(0%,0%,0%);stroke-opacity:1;stroke-miterlimit:10;" d="M 227.351562 160.796875 L 237.933594 135.941406 "/>
<path style="fill:none;stroke-width:1.2;stroke-linecap:butt;stroke-linejoin:miter;stroke:rgb(0%,0%,0%);stroke-opacity:1;stroke-miterlimit:10;" d="M 222.5625 155.820312 L 231.027344 135.9375 "/>
<path style="fill:none;stroke-width:1.2;stroke-linecap:butt;stroke-linejoin:miter;stroke:rgb(0%,0%,0%);stroke-opacity:1;stroke-miterlimit:10;" d="M 227.351562 160.796875 L 235.46875 171.589844 "/>
<path style="fill:none;stroke-width:1.2;stroke-linecap:butt;stroke-linejoin:miter;stroke:rgb(0%,80%,0%);stroke-opacity:1;stroke-miterlimit:10;" d="M 235.46875 171.589844 L 243.589844 182.386719 "/>
<path style="fill:none;stroke-width:1.2;stroke-linecap:butt;stroke-linejoin:miter;stroke:rgb(0%,0%,0%);stroke-opacity:1;stroke-miterlimit:10;" d="M 237.933594 135.941406 L 221.699219 114.347656 "/>
<path style="fill:none;stroke-width:1.2;stroke-linecap:butt;stroke-linejoin:miter;stroke:rgb(0%,0%,0%);stroke-opacity:1;stroke-miterlimit:10;" d="M 237.933594 135.941406 L 251.34375 134.308594 "/>
<path style="fill:none;stroke-width:1.2;stroke-linecap:butt;stroke-linejoin:miter;stroke:rgb(0%,80%,0%);stroke-opacity:1;stroke-miterlimit:10;" d="M 251.34375 134.308594 L 264.75 132.675781 "/>
<path style="fill:none;stroke-width:1.2;stroke-linecap:butt;stroke-linejoin:miter;stroke:rgb(0%,0%,0%);stroke-opacity:1;stroke-miterlimit:10;" d="M 221.699219 114.347656 L 194.882812 117.613281 "/>
<path style="fill:none;stroke-width:1.2;stroke-linecap:butt;stroke-linejoin:miter;stroke:rgb(0%,0%,0%);stroke-opacity:1;stroke-miterlimit:10;" d="M 219.785156 120.984375 L 198.332031 123.597656 "/>
<path style="fill:none;stroke-width:1.2;stroke-linecap:butt;stroke-linejoin:miter;stroke:rgb(0%,0%,0%);stroke-opacity:1;stroke-miterlimit:10;" d="M 221.699219 114.347656 L 226.988281 101.921875 "/>
<path style="fill:none;stroke-width:1.2;stroke-linecap:butt;stroke-linejoin:miter;stroke:rgb(0%,80%,0%);stroke-opacity:1;stroke-miterlimit:10;" d="M 226.988281 101.921875 L 232.28125 89.492188 "/>
<path style="fill:none;stroke-width:1.2;stroke-linecap:butt;stroke-linejoin:miter;stroke:rgb(0%,0%,0%);stroke-opacity:1;stroke-miterlimit:10;" d="M 194.882812 117.613281 L 186.765625 106.816406 "/>
<path style="fill:none;stroke-width:1.2;stroke-linecap:butt;stroke-linejoin:miter;stroke:rgb(0%,80%,0%);stroke-opacity:1;stroke-miterlimit:10;" d="M 186.765625 106.816406 L 178.648438 96.023438 "/>
<path style=" stroke:none;fill-rule:nonzero;fill:rgb(100%,100%,100%);fill-opacity:1;" d="M 167.648438 89.523438 L 178.648438 89.523438 L 178.648438 102.523438 L 167.648438 102.523438 Z M 167.648438 89.523438 "/>
<g style="fill:rgb(0%,80%,0%);fill-opacity:1;">
  <use xlink:href="#glyph0-4" x="167.648438" y="99.424805"/>
  <use xlink:href="#glyph0-5" x="175.099609" y="99.424805"/>
</g>
<path style=" stroke:none;fill-rule:nonzero;fill:rgb(100%,100%,100%);fill-opacity:1;" d="M 227.28125 82.992188 L 238.28125 82.992188 L 238.28125 95.992188 L 227.28125 95.992188 Z M 227.28125 82.992188 "/>
<g style="fill:rgb(0%,80%,0%);fill-opacity:1;">
  <use xlink:href="#glyph0-4" x="227.28125" y="92.893555"/>
  <use xlink:href="#glyph0-5" x="234.732422" y="92.893555"/>
</g>
<path style=" stroke:none;fill-rule:nonzero;fill:rgb(100%,100%,100%);fill-opacity:1;" d="M 259.75 126.175781 L 270.75 126.175781 L 270.75 139.175781 L 259.75 139.175781 Z M 259.75 126.175781 "/>
<g style="fill:rgb(0%,80%,0%);fill-opacity:1;">
  <use xlink:href="#glyph0-4" x="259.75" y="136.077148"/>
  <use xlink:href="#glyph0-5" x="267.201172" y="136.077148"/>
</g>
<path style=" stroke:none;fill-rule:nonzero;fill:rgb(100%,100%,100%);fill-opacity:1;" d="M 238.589844 175.886719 L 249.589844 175.886719 L 249.589844 188.886719 L 238.589844 188.886719 Z M 238.589844 175.886719 "/>
<g style="fill:rgb(0%,80%,0%);fill-opacity:1;">
  <use xlink:href="#glyph0-4" x="238.589844" y="185.788086"/>
  <use xlink:href="#glyph0-5" x="246.041016" y="185.788086"/>
</g>
<path style="fill:none;stroke-width:1.2;stroke-linecap:butt;stroke-linejoin:miter;stroke:rgb(0%,0%,0%);stroke-opacity:1;stroke-miterlimit:10;" d="M 189.570312 185.761719 L 176.164062 187.394531 "/>
<path style="fill:none;stroke-width:1.2;stroke-linecap:butt;stroke-linejoin:miter;stroke:rgb(100%,0%,0%);stroke-opacity:1;stroke-miterlimit:10;" d="M 176.164062 187.394531 L 162.753906 189.027344 "/>
<path style="fill:none;stroke-width:1.2;stroke-linecap:butt;stroke-linejoin:miter;stroke:rgb(0%,0%,0%);stroke-opacity:1;stroke-miterlimit:10;" d="M 190.339844 192.070312 L 176.933594 193.703125 "/>
<path style="fill:none;stroke-width:1.2;stroke-linecap:butt;stroke-linejoin:miter;stroke:rgb(100%,0%,0%);stroke-opacity:1;stroke-miterlimit:10;" d="M 176.933594 193.703125 L 163.523438 195.335938 "/>
<path style="fill:none;stroke-width:1.2;stroke-linecap:butt;stroke-linejoin:miter;stroke:rgb(0%,0%,0%);stroke-opacity:1;stroke-miterlimit:10;" d="M 189.957031 188.914062 L 198.074219 199.710938 "/>
<path style="fill:none;stroke-width:1.2;stroke-linecap:butt;stroke-linejoin:miter;stroke:rgb(100%,0%,0%);stroke-opacity:1;stroke-miterlimit:10;" d="M 198.074219 199.710938 L 206.191406 210.507812 "/>
<path style=" stroke:none;fill-rule:nonzero;fill:rgb(100%,100%,100%);fill-opacity:1;" d="M 154.140625 185.679688 L 163.140625 185.679688 L 163.140625 198.679688 L 154.140625 198.679688 Z M 154.140625 185.679688 "/>
<g style="fill:rgb(100%,0%,0%);fill-opacity:1;">
  <use xlink:href="#glyph0-3" x="154.140625" y="195.581055"/>
</g>
<path style=" stroke:none;fill-rule:nonzero;fill:rgb(100%,100%,100%);fill-opacity:1;" d="M 198.191406 204.007812 L 215.191406 204.007812 L 215.191406 217.007812 L 198.191406 217.007812 Z M 198.191406 204.007812 "/>
<g style="fill:rgb(100%,0%,0%);fill-opacity:1;">
  <use xlink:href="#glyph0-3" x="198.191406" y="213.90918"/>
  <use xlink:href="#glyph0-2" x="206.591797" y="213.90918"/>
</g>
<path style="fill:none;stroke-width:1.2;stroke-linecap:butt;stroke-linejoin:miter;stroke:rgb(0%,0%,100%);stroke-opacity:1;stroke-miterlimit:10;" d="M 61.519531 177.640625 L 35.695312 169.714844 "/>
<path style=" stroke:none;fill-rule:nonzero;fill:rgb(100%,100%,100%);fill-opacity:1;" d="M 53.519531 171.140625 L 70.519531 171.140625 L 70.519531 184.140625 L 53.519531 184.140625 Z M 53.519531 171.140625 "/>
<g style="fill:rgb(0%,0%,100%);fill-opacity:1;">
  <use xlink:href="#glyph0-1" x="53.519531" y="181.041992"/>
  <use xlink:href="#glyph0-2" x="61.50293" y="181.041992"/>
</g>
<path style="fill:none;stroke-width:1.2;stroke-linecap:butt;stroke-linejoin:miter;stroke:rgb(0%,0%,100%);stroke-opacity:1;stroke-miterlimit:10;" d="M 35.695312 169.714844 L 35.472656 156.210938 "/>
<path style="fill:none;stroke-width:1.2;stroke-linecap:butt;stroke-linejoin:miter;stroke:rgb(0%,0%,0%);stroke-opacity:1;stroke-miterlimit:10;" d="M 35.472656 156.210938 L 35.25 142.703125 "/>
<path style="fill:none;stroke-width:1.2;stroke-linecap:butt;stroke-linejoin:miter;stroke:rgb(0%,0%,100%);stroke-opacity:1;stroke-miterlimit:10;" d="M 42.003906 166.910156 L 41.828125 156.105469 "/>
<path style="fill:none;stroke-width:1.2;stroke-linecap:butt;stroke-linejoin:miter;stroke:rgb(0%,0%,0%);stroke-opacity:1;stroke-miterlimit:10;" d="M 41.828125 156.105469 L 41.648438 145.300781 "/>
<path style=" stroke:none;fill-rule:nonzero;fill:rgb(100%,100%,100%);fill-opacity:1;" d="M 31.695312 163.214844 L 39.695312 163.214844 L 39.695312 176.214844 L 31.695312 176.214844 Z M 31.695312 163.214844 "/>
<g style="fill:rgb(0%,0%,100%);fill-opacity:1;">
  <use xlink:href="#glyph0-1" x="31.695312" y="173.116211"/>
</g>
</g>
</svg>

<svg xmlns="http://www.w3.org/2000/svg" xmlns:xlink="http://www.w3.org/1999/xlink" width="300pt" height="300pt" viewBox="0 0 300 300"><defs><symbol overflow="visible"><path d="M.547 1.938V-7.75h5.5v9.688zm.625-.61h4.266v-8.47H1.171zm0 0"/></symbol><symbol overflow="visible" id="a"><path d="M1.078-8.016h1.47l3.546 6.704v-6.704h1.062V0H5.688L2.124-6.703V0H1.078zm0 0"/></symbol><symbol overflow="visible" id="b"><path d="M1.078-8.016h1.094v3.282H6.11v-3.282h1.077V0H6.11v-3.813H2.17V0H1.078zm0 0"/></symbol><symbol overflow="visible" id="c"><path d="M4.328-7.28c-.78 0-1.406.296-1.875.89-.46.585-.687 1.382-.687 2.39 0 1.012.226 1.813.687 2.406.47.586 1.094.875 1.875.875.79 0 1.414-.288 1.875-.874.457-.593.688-1.394.688-2.406 0-1.008-.23-1.805-.687-2.39-.46-.594-1.086-.89-1.875-.89zm0-.892c1.125 0 2.024.383 2.703 1.14C7.708-6.28 8.048-5.27 8.048-4c0 1.262-.34 2.273-1.016 3.03C6.353-.22 5.454.157 4.33.157S2.3-.22 1.625-.97c-.668-.75-1-1.757-1-3.03 0-1.27.332-2.28 1-3.03.676-.76 1.578-1.142 2.703-1.142zm0 0"/></symbol><symbol overflow="visible" id="d"><path d="M7.078-7.406v1.156c-.367-.344-.758-.598-1.172-.766-.406-.164-.843-.25-1.312-.25-.918 0-1.62.282-2.11.844-.48.555-.718 1.36-.718 2.422 0 1.055.238 1.86.718 2.422.49.562 1.192.844 2.11.844.468 0 .906-.082 1.312-.25.414-.164.805-.422 1.172-.766v1.125c-.375.262-.777.46-1.203.594-.418.124-.867.186-1.344.186-1.21 0-2.163-.367-2.858-1.11C.972-1.703.625-2.718.625-4c0-1.29.348-2.305 1.047-3.047.695-.75 1.648-1.125 2.86-1.125.476 0 .93.07 1.36.203.424.126.82.314 1.186.564zm0 0"/></symbol><symbol overflow="visible" id="e"><path d="M1.03-8.36h1V0h-1zm0 0"/></symbol></defs><g><path fill="#fff" d="M0 0h300v300H0z"/><path d="M98.2 105.816l-26.817 3.262M96.285 112.453l-21.453 2.61M114.434 127.406L98.2 105.816M71.383 109.078L60.8 133.938M60.8 133.938l16.235 21.59M57.344 139.914l12.988 17.274M35.25 142.703l25.55-8.766M77.035 155.527l26.817-3.265M77.035 155.527l-7.758 11.055" stroke-width="1.2" stroke="#000" stroke-miterlimit="10" fill="none"/><path d="M69.277 166.582l-7.757 11.06" stroke-width="1.2" stroke="#00f" stroke-miterlimit="10" fill="none"/><path d="M103.852 152.262l10.582-24.856M99.063 147.29l8.464-19.888M114.434 127.406l13.41-1.633" stroke-width="1.2" stroke="#000" stroke-miterlimit="10" fill="none"/><path d="M127.844 125.773l13.406-1.632M141.25 124.14l8.117 10.797" stroke-width="1.2" stroke="#00f" stroke-miterlimit="10" fill="none"/><path d="M149.367 134.938l8.117 10.796" stroke-width="1.2" stroke="#000" stroke-miterlimit="10" fill="none"/><path d="M133.25 117.64h17v13h-17zm0 0" fill="#fff"/><g fill="#00f"><use xlink:href="#a" x="133.25" y="127.542"/><use xlink:href="#b" x="141.233" y="127.542"/></g><path d="M154.563 144.488l-5.293 12.43" stroke-width="1.2" stroke="#000" stroke-miterlimit="10" fill="none"/><path d="M149.27 156.918l-5.29 12.426" stroke-width="1.2" stroke="#f00" stroke-miterlimit="10" fill="none"/><path d="M160.41 146.977l-5.293 12.43" stroke-width="1.2" stroke="#000" stroke-miterlimit="10" fill="none"/><path d="M155.117 159.406l-5.29 12.426" stroke-width="1.2" stroke="#f00" stroke-miterlimit="10" fill="none"/><path d="M157.484 145.734l26.817-3.265" stroke-width="1.2" stroke="#000" stroke-miterlimit="10" fill="none"/><path d="M137.902 164.09h9v13h-9zm0 0" fill="#fff"/><use xlink:href="#c" x="137.902" y="173.991" fill="#f00"/><path d="M184.3 142.47l16.235 21.59M191.004 140.81l12.988 17.272M194.883 117.613L184.3 142.47M200.535 164.06l26.817-3.263M200.535 164.06l-10.578 24.854M227.352 160.797l10.582-24.856M222.563 155.82l8.464-19.882M227.352 160.797l8.117 10.793" stroke-width="1.2" stroke="#000" stroke-miterlimit="10" fill="none"/><path d="M235.47 171.59l8.12 10.797" stroke-width="1.2" stroke="#0c0" stroke-miterlimit="10" fill="none"/><path d="M237.934 135.94L221.7 114.35M237.934 135.94l13.41-1.63" stroke-width="1.2" stroke="#000" stroke-miterlimit="10" fill="none"/><path d="M251.344 134.31l13.406-1.634" stroke-width="1.2" stroke="#0c0" stroke-miterlimit="10" fill="none"/><path d="M221.7 114.348l-26.817 3.265M219.785 120.984l-21.453 2.614M221.7 114.348l5.288-12.426" stroke-width="1.2" stroke="#000" stroke-miterlimit="10" fill="none"/><path d="M226.988 101.922l5.293-12.43" stroke-width="1.2" stroke="#0c0" stroke-miterlimit="10" fill="none"/><path d="M194.883 117.613l-8.117-10.797" stroke-width="1.2" stroke="#000" stroke-miterlimit="10" fill="none"/><path d="M186.766 106.816l-8.118-10.793" stroke-width="1.2" stroke="#0c0" stroke-miterlimit="10" fill="none"/><path d="M167.648 89.523h11v13h-11zm0 0" fill="#fff"/><g fill="#0c0"><use xlink:href="#d" x="167.648" y="99.425"/><use xlink:href="#e" x="175.1" y="99.425"/></g><path d="M227.28 82.992h11v13h-11zm0 0" fill="#fff"/><g fill="#0c0"><use xlink:href="#d" x="227.281" y="92.894"/><use xlink:href="#e" x="234.732" y="92.894"/></g><path d="M259.75 126.176h11v13h-11zm0 0" fill="#fff"/><g fill="#0c0"><use xlink:href="#d" x="259.75" y="136.077"/><use xlink:href="#e" x="267.201" y="136.077"/></g><path d="M238.59 175.887h11v13h-11zm0 0" fill="#fff"/><g fill="#0c0"><use xlink:href="#d" x="238.59" y="185.788"/><use xlink:href="#e" x="246.041" y="185.788"/></g><path d="M189.57 185.762l-13.406 1.633" stroke-width="1.2" stroke="#000" stroke-miterlimit="10" fill="none"/><path d="M176.164 187.395l-13.41 1.632" stroke-width="1.2" stroke="#f00" stroke-miterlimit="10" fill="none"/><path d="M190.34 192.07l-13.406 1.633" stroke-width="1.2" stroke="#000" stroke-miterlimit="10" fill="none"/><path d="M176.934 193.703l-13.41 1.633" stroke-width="1.2" stroke="#f00" stroke-miterlimit="10" fill="none"/><path d="M189.957 188.914l8.117 10.797" stroke-width="1.2" stroke="#000" stroke-miterlimit="10" fill="none"/><path d="M198.074 199.71l8.117 10.798" stroke-width="1.2" stroke="#f00" stroke-miterlimit="10" fill="none"/><path d="M154.14 185.68h9v13h-9zm0 0" fill="#fff"/><use xlink:href="#c" x="154.141" y="195.581" fill="#f00"/><path d="M198.19 204.008h17v13h-17zm0 0" fill="#fff"/><g fill="#f00"><use xlink:href="#c" x="198.191" y="213.909"/><use xlink:href="#b" x="206.592" y="213.909"/></g><path d="M61.52 177.64l-25.825-7.925" stroke-width="1.2" stroke="#00f" stroke-miterlimit="10" fill="none"/><path d="M53.52 171.14h17v13h-17zm0 0" fill="#fff"/><g fill="#00f"><use xlink:href="#a" x="53.52" y="181.042"/><use xlink:href="#b" x="61.503" y="181.042"/></g><path d="M35.695 169.715l-.222-13.504" stroke-width="1.2" stroke="#00f" stroke-miterlimit="10" fill="none"/><path d="M35.473 156.21l-.223-13.507" stroke-width="1.2" stroke="#000" stroke-miterlimit="10" fill="none"/><path d="M42.004 166.91l-.176-10.805" stroke-width="1.2" stroke="#00f" stroke-miterlimit="10" fill="none"/><path d="M41.828 156.105l-.18-10.804" stroke-width="1.2" stroke="#000" stroke-miterlimit="10" fill="none"/><path d="M31.695 163.215h8v13h-8zm0 0" fill="#fff"/><use xlink:href="#a" x="31.695" y="173.116" fill="#00f"/></g></svg>
